X: 36509
T: Sergeant Early's
R: jig
M: 6/8
K: Dmajor
FED EFG|AdB =c2A|dcd fed|ecA A2G|
FED EFG|AdB =c2e|dcA GEA|1 ~D3 D3:|2 ~D3 DAB||
=c2A Bcd|efd e2d|dcd fed|ecA A2B|
=cBA Bcd|eag e3|dcA GEA|1 ~D3 DAB:|2 ~D3 D2G||

